dist/images/stack-overflow.svg

<svg width="54" height="54" viewBox="0 0 54 54" fill="none" xmlns="http://www.w3.org/2000/svg">
<circle cx="27" cy="27" r="27" fill="#589574"/>
<g clip-path="url(#clip0_1143_11)">
<path d="M18.666 30.5487L34.173 33.2937L34.8225 30.6825L19.3155 27.9175L18.666 30.5487ZM18.3225 33.9637H34.1715V36.6225H18.3225V33.9637ZM20.7 24.2888L35.058 29.9463L36.3885 27.5163L22.023 21.8438L20.7 24.2888ZM35.0595 29.9475L35.058 29.9463L35.0565 29.9475H35.0595Z" fill="white"/>
<path d="M12 31.2863V42H40.488V31.2863H37.3185V39.3213H15.1695V31.2863H12Z" fill="white"/>
<path d="M24.6795 18.3287L36.843 26.92L38.862 24.8575L26.6985 16.2662L24.6795 18.3287ZM42 22.7337L32.547 12L30.0105 13.6075L39.4635 24.3412L42 22.7337Z" fill="white"/>
</g>
<defs>
<clipPath id="clip0_1143_11">
<rect width="36" height="30" fill="white" transform="translate(9 12)"/>
</clipPath>
</defs>
</svg>

<svg width="54" height="54" viewBox="0 0 54 54"  fill="none" xmlns="http://www.w3.org/2000/svg"><circle cx="27" cy="27" r="27" fill="#589574"/><g clip-path="url(#clip0_1143_11)" fill="#fff"><path d="M18.666 30.549l15.507 2.745.65-2.611-15.508-2.765-.649 2.63zm-.343 3.415h15.849v2.659h-15.85v-2.66zm2.377-9.675l14.358 5.657 1.33-2.43-14.365-5.672-1.323 2.445zm14.36 5.659l-.002-.002-.002.002h.004z"/><path d="M12 31.286V42h28.488V31.286h-3.17v8.035H15.17v-8.035H12zm12.68-12.957l12.163 8.591 2.019-2.063-12.164-8.59-2.018 2.062zM42 22.734L32.547 12l-2.536 1.607 9.453 10.734L42 22.734z"/></g><defs><clipPath id="clip0_1143_11"><path fill="#fff" transform="translate(9 12)" d="M0 0h36v30H0z"/></clipPath></defs></svg>
